packages/foundations/assets/icons/functional/images/human/clothes_hanger_14.svg

<svg width="14" height="14" viewBox="0 0 14 14" fill="none" xmlns="http://www.w3.org/2000/svg">
<g clip-path="url(#clip0_185_1133)">
<path fill-rule="evenodd" clip-rule="evenodd" d="M6.99683 2.45C8.15825 2.45 9.09977 3.39152 9.09977 4.55294C9.09977 5.39589 8.64809 5.95053 7.82356 6.44068C7.77996 6.4666 7.72178 6.52266 7.70471 6.64L11.5853 8.32524C12.4369 8.69778 12.8252 9.69009 12.4526 10.5416C12.2014 11.1159 11.6538 11.4997 11.0354 11.5454L3.08875 11.55C2.1593 11.55 1.40582 10.7965 1.40582 9.86707C1.40582 9.24023 1.75371 8.66914 2.30193 8.37937C4.96777 7.21979 6.30069 6.63815 6.30069 6.63815C6.30926 6.39816 6.35314 6.17784 6.47607 5.92375C6.61097 5.64493 6.82112 5.40791 7.10817 5.23726C7.55272 4.97299 7.69977 4.79242 7.69977 4.55294C7.69977 4.16472 7.38506 3.85 6.99683 3.85C6.69757 3.85 6.36058 4.07321 6.27543 4.38521C6.17436 4.75836 5.78992 4.97893 5.41677 4.87786C5.04362 4.77679 4.82305 4.39235 4.92412 4.0192C5.17014 3.1109 6.04011 2.45 6.99683 2.45ZM6.72272 7.97396L2.97535 9.60786C2.87237 9.65291 2.80582 9.75466 2.80582 9.86707C2.80582 10.0038 2.88728 10.1241 3.07163 10.15H10.9108C11.0232 10.15 11.1249 10.0835 11.17 9.98047C11.2248 9.85521 11.1817 9.71183 11.0741 9.63598L7.32948 7.99445C7.19891 7.9399 7.08803 7.91263 6.99683 7.91263C6.91516 7.91263 6.82379 7.93307 6.72272 7.97396Z" fill="#1A1C1F"/>
</g>
<defs>
<clipPath id="clip0_185_1133">
<rect width="14" height="14" fill="white"/>
</clipPath>
</defs>
</svg>

<svg xmlns="http://www.w3.org/2000/svg" width="14" height="14" fill="none"><g clip-path="url(#a)"><path fill="#1A1C1F" fill-rule="evenodd" d="M6.997 2.45c1.161 0 2.103.942 2.103 2.103 0 .843-.452 1.398-1.276 1.888-.044.026-.102.082-.12.199l3.881 1.685a1.683 1.683 0 0 1-.55 3.22l-7.946.005a1.683 1.683 0 0 1-.787-3.17Q6.3 6.638 6.3 6.637c.008-.24.052-.46.175-.714.135-.28.345-.516.632-.687.445-.264.592-.445.592-.684a.703.703 0 0 0-.703-.703c-.3 0-.636.223-.722.535a.7.7 0 0 1-1.35-.366C5.17 3.111 6.04 2.45 6.996 2.45m-.274 5.524L2.975 9.608a.28.28 0 0 0-.17.26c0 .136.082.256.267.282h7.839a.283.283 0 0 0 .163-.514L7.33 7.994a.9.9 0 0 0-.332-.081.7.7 0 0 0-.274.061" clip-rule="evenodd"/></g><defs><clipPath id="a"><path fill="#fff" d="M0 0h14v14H0z"/></clipPath></defs></svg>
